X: 133
T: Shambo Breeches
R: reel
M: C
L: 1/8
Z: 2012 John Chambers <jc:trillian.mit.edu>
B: J. Anderson "Budget of Strathspeys, Reels and Country Dances" (Early 1800s) p.13 #3
F: http://imslp.org/wiki/Anderson%27s_Budget_of_Strathspeys,_Reels_and_Country_Dances_(Various)
K: G
c | (Bd).d.g (ec).c.d | (BG)(Gc) AFFA | Bddg eccd | BGAF G2G :|
c | (BG).d.G (BG).d.B | (AF).c.F (AF).c.A | (BG)(dG) Bcdg | BGAF G2(G ||
c)| BGdG BGdf | AFcF AFcA | BGdG Bcdg | BGAF G2G |]

%%sep 2 1 500
%%sep 1 1 500

